src/assets/icons/item-flags/expired.svg

<svg width="24" height="24" viewBox="0 0 24 24" fill="none" xmlns="http://www.w3.org/2000/svg">
<path fill-rule="evenodd" clip-rule="evenodd" d="M12.2497 21.5C17.6344 21.5 22 17.1343 22 11.75C22 6.36565 17.6344 2 12.2497 2C6.8655 2 2.5 6.36575 2.5 11.75C2.5 17.1342 6.8655 21.5 12.2497 21.5ZM12.2497 3.56C16.7728 3.56 20.44 7.22721 20.44 11.75C20.44 16.2728 16.7728 19.94 12.2497 19.94C7.72708 19.94 4.06 16.2727 4.06 11.75C4.06 7.2273 7.72708 3.56 12.2497 3.56Z" fill="#4ACDE8"/>
<path fill-rule="evenodd" clip-rule="evenodd" d="M11.4699 3.17V3.84242C11.4699 4.2732 11.8191 4.62242 12.2499 4.62242C12.6807 4.62242 13.0299 4.2732 13.0299 3.84242V3.17C13.0299 2.73922 12.6807 2.39 12.2499 2.39C11.8191 2.39 11.4699 2.73922 11.4699 3.17ZM4.33846 12.53H3.66989C3.23911 12.53 2.88989 12.1808 2.88989 11.75C2.88989 11.3192 3.23911 10.97 3.66989 10.97H4.33846C4.76925 10.97 5.11846 11.3192 5.11846 11.75C5.11846 12.1808 4.76925 12.53 4.33846 12.53ZM20.0499 12.53H20.7185C21.1493 12.53 21.4985 12.1808 21.4985 11.75C21.4985 11.3192 21.1493 10.97 20.7185 10.97H20.0499C19.6192 10.97 19.2699 11.3192 19.2699 11.75C19.2699 12.1808 19.6192 12.53 20.0499 12.53ZM11.4699 19.55V20.2224C11.4699 20.6532 11.8191 21.0024 12.2499 21.0024C12.6807 21.0024 13.0299 20.6532 13.0299 20.2224V19.55C13.0299 19.1192 12.6807 18.77 12.2499 18.77C11.8191 18.77 11.4699 19.1192 11.4699 19.55ZM17.2761 8.32702C17.5259 8.67798 17.4439 9.16499 17.0929 9.41478L13.1936 12.19V15.4824C13.1936 15.9132 12.8443 16.2624 12.4136 16.2624C11.9828 16.2624 11.6336 15.9132 11.6336 15.4824V11.7878C11.6336 11.5354 11.7557 11.2986 11.9613 11.1523L16.1884 8.14381C16.5393 7.89403 17.0264 7.97605 17.2761 8.32702Z" fill="#4ACDE8"/>
</svg>

<svg width="24" height="24" fill="none" xmlns="http://www.w3.org/2000/svg"><path fill-rule="evenodd" clip-rule="evenodd" d="M12.25 21.5c5.384 0 9.75-4.366 9.75-9.75S17.634 2 12.25 2C6.865 2 2.5 6.366 2.5 11.75s4.365 9.75 9.75 9.75zm0-17.94a8.19 8.19 0 110 16.381 8.19 8.19 0 010-16.381z" fill="#4ACDE8"/><path fill-rule="evenodd" clip-rule="evenodd" d="M11.47 3.17v.672a.78.78 0 101.56 0V3.17a.78.78 0 10-1.56 0zm-7.132 9.36H3.67a.78.78 0 110-1.56h.668a.78.78 0 110 1.56zm15.712 0h.668a.78.78 0 100-1.56h-.668a.78.78 0 000 1.56zm-8.58 7.02v.672a.78.78 0 101.56 0v-.672a.78.78 0 10-1.56 0zm5.806-11.223a.78.78 0 01-.183 1.088l-3.9 2.775v3.292a.78.78 0 01-1.56 0v-3.694a.78.78 0 01.328-.636l4.227-3.008a.78.78 0 011.088.183z" fill="#4ACDE8"/></svg>
